X:93
T: RINGEL RINGEL ROSENKRANZ
N: K2072
O: Europa, Mitteleuropa, Deutschland, Darmstadt
R: Kinder - Lied, Reigen, Tanz - Spiel
M: 2/4
L: 1/16
K: F
 | c2c2d2d2 | c2c2A4 |
c2c2A4 | c2c2A4 |
c2c2A4 | ccc2A4 |
c2c2c2c2 | f4z4

